X:5202
T:Polska frn Hgvlen, "Pick Halvars godnattlt"
T:or the "Goodnight" tune
O:england
S:(efter Fritiof Mesch)
N:Efter Johan Persa Bergstrm. "Pick Halvars godnattlt, sista dansen p
N:danskvllen" (the last tune
N:played in a dance night)
A:Hgvlen, Hrjedalen (Sweden)
M:3/4
L:1/8
Q:C2=136
K:Dm
A|d>^c d>e f>g|a>b a2 g2|a2 (f/g/f/e/) f>g|(ag) [e3e3]:|g|\
(fe) (d^c) df|e>(^c e)d (fa)|({ab}ag) (ef) fd|e>^c A3 g|\
(fe) (d^c) df|e>(^c e)d (fa)|({ab}ag) (ef) fd|e>^c d3|]\
T:Andrastmma
A,|F>E F>A d>e|f>g f2 e2|f2 (d>^c) d>e|(fe) ^c3:|\
e|(d^c) A2 Ad|^c>(A c)A (df)|(fe) (^cd) dA|A>G E3 e|\
(d^c) A2 Ad|^c>(A c)A (df)|(fe) (^cd) dA|(G>E) [F3A3]|]
